X:42
T:Hast to the Wedding. JGi.042
M:6/8
L:1/8
Q:3/8=110
S:Joshua Gibbons MS,1823,Tealby,Lincs.
R:jig
O:Tealby,Lincolnshire
Z:VMP/R.Greig, 2009
K:D
A|AFA Aaf|ede fdB|AFA AdF|FEEE2A|
AFA Aaf|ede fdB|AFA faf|ddd d2:|
|:a|afa afa|bgb bgb|afa agf|fee efg|
a2zf2z|ede fdB|AFA faf|dddd2:|

